X:45
T:T029A- Bonny Lass with the Short Apron
S:Merry Medley, 1744
Q:1/4=120
L:1/8
M:6/8
K:Dm
cAA f2d|e/f/gA cAA|cAAf2d|ge/f/g/e/ d2z:|\
c2c (d/c/B/A/c2)|FcA BGG|c2c (d/c/B/A/c2)|FcA def|\
c2c (d/c/B/A/c2)|FcA BGG|cAA f2d|ge/f/g/e/ d3|]

